public/images/verify-signatures-icon.svg

<svg xmlns="http://www.w3.org/2000/svg" width="95" height="68" viewBox="0 0 95 68">
    <path fill="#47C24C" fill-rule="evenodd" d="M20.522 68c-1.79 0-3.547-1.332-5.352-4.059-4.629-6.582-3.348-13.965 3.547-20.219 4.148-3.625 8.906-6.621 13.559-8.57.203-1.864.3-3.73.3-5.63 0-.616.024-1.452.048-2.456.172-6.387.62-23.355-5.414-24.164-3.313-.426-10.492 8.258-13.18 12.902C5.522 29.523 1.776 40.788 3.175 48.433a1.454 1.454 0 0 1-1.157 1.691c-.8.117-1.53-.375-1.68-1.164-1.55-8.488 2.231-20.148 11.228-34.652.066-.113 9.414-15.027 16.004-14.28 8.625 1.155 8.156 18.69 7.933 27.12-.023.969-.047 1.781-.047 2.379 0 1.523-.058 3.031-.183 4.527 1.86-.574 3.402-.789 4.629.035 1.379.926 1.746 2.739 1.89 5.352.07 1.238-.015 2.617-.097 3.953-.094 1.469-.243 3.918.12 4.488.028-.074.696-.187 2.36-1.46.356-.317.8-.747 1.262-1.184 2.012-1.93 4.285-4.113 7.203-4.379h.016c4.468 0 5.023 2.613 5.43 4.52.226 1.062.437 2.062 1.218 2.847 2.293 2.102 4.613.469 9.008-3.488 3.12-2.816 6.367-5.719 9.855-4.957 1.977.394 3.43 2.172 4.832 3.887.97 1.18 1.961 2.398 2.95 2.894 2.011.66 4.968.66 7.168-.078a1.424 1.424 0 0 1 1.82.91 1.451 1.451 0 0 1-.906 1.836c-2.79.945-6.399.945-9.188 0-1.719-.848-2.91-2.309-4.066-3.719-1.082-1.324-2.203-2.691-3.2-2.894-2.12-.485-4.769 1.949-7.347 4.277-3.742 3.375-8.399 7.578-12.914 3.426-1.43-1.438-1.77-3.047-2.043-4.336-.375-1.758-.477-2.23-2.5-2.23-1.785.167-3.676 1.98-5.348 3.581-.484.47-.96.926-1.426 1.332-1.734 1.336-3.855 2.68-5.601 1.735-1.953-1.055-1.778-3.899-1.57-7.192.074-1.25.156-2.543.097-3.609-.144-2.594-.508-3.031-.613-3.102-.203-.144-.961-.128-3.387.727-.93 6.512-3.094 13.051-6.773 20.711a75.827 75.827 0 0 0-.953 2.145c-1.622 3.753-3.301 7.632-6.344 7.902a3.249 3.249 0 0 1-.332.015h-.001zm11.266-29.457c-3.844 1.816-7.786 4.406-11.164 7.355-3.317 3.012-8.16 9.172-3.078 16.398 1.789 2.703 2.78 2.832 3.046 2.8 1.344-.116 2.918-3.76 3.961-6.171.336-.777.664-1.54.996-2.242 3.215-6.696 5.227-12.48 6.239-18.141z"/>
</svg>

<?xml version="1.0" encoding="UTF-8"?>
<svg width="95px" height="68px" viewBox="0 0 95 68" version="1.1" xmlns="http://www.w3.org/2000/svg" xmlns:xlink="http://www.w3.org/1999/xlink">
    <!-- Generator: Sketch 48.2 (47327) - http://www.bohemiancoding.com/sketch -->
    <title>verify-signatures-icon</title>
    <desc>Created with Sketch.</desc>
    <defs></defs>
    <g id="Page-1" stroke="none" stroke-width="1" fill="none" fill-rule="evenodd">
        <g id="verify-signatures-icon" fill="#C9D0DA">
            <path d="M20.522,68 C18.732,68 16.975,66.668 15.17,63.941 C10.541,57.359 11.822,49.976 18.717,43.722 C22.865,40.097 27.623,37.101 32.276,35.152 C32.479,33.288 32.576,31.422 32.576,29.522 C32.576,28.906 32.6,28.07 32.624,27.066 C32.796,20.679 33.244,3.711 27.21,2.902 C23.897,2.476 16.718,11.16 14.03,15.804 C5.522,29.523 1.776,40.788 3.175,48.433 C3.31944698,49.2188168 2.80276854,49.9739622 2.018,50.124 C1.218,50.241 0.488,49.749 0.338,48.96 C-1.212,40.472 2.569,28.812 11.566,14.308 C11.632,14.195 20.98,-0.719 27.57,0.028 C36.195,1.183 35.726,18.718 35.503,27.148 C35.48,28.117 35.456,28.929 35.456,29.527 C35.456,31.05 35.398,32.558 35.273,34.054 C37.133,33.48 38.675,33.265 39.902,34.089 C41.281,35.015 41.648,36.828 41.792,39.441 C41.862,40.679 41.777,42.058 41.695,43.394 C41.601,44.863 41.452,47.312 41.815,47.882 C41.843,47.808 42.511,47.695 44.175,46.422 C44.531,46.105 44.975,45.675 45.437,45.238 C47.449,43.308 49.722,41.125 52.64,40.859 L52.656,40.859 C57.124,40.859 57.679,43.472 58.086,45.379 C58.312,46.441 58.523,47.441 59.304,48.226 C61.597,50.328 63.917,48.695 68.312,44.738 C71.432,41.922 74.679,39.019 78.167,39.781 C80.144,40.175 81.597,41.953 82.999,43.668 C83.969,44.848 84.96,46.066 85.949,46.562 C87.96,47.222 90.917,47.222 93.117,46.484 C93.4789053,46.3591383 93.875843,46.3852593 94.2182649,46.5564702 C94.5606867,46.7276812 94.8197462,47.0295587 94.937,47.394 C95.1918584,48.1510527 94.7868907,48.9717157 94.031,49.23 C91.241,50.175 87.632,50.175 84.843,49.23 C83.124,48.382 81.933,46.921 80.777,45.511 C79.695,44.187 78.574,42.82 77.577,42.617 C75.457,42.132 72.808,44.566 70.23,46.894 C66.488,50.269 61.831,54.472 57.316,50.32 C55.886,48.882 55.546,47.273 55.273,45.984 C54.898,44.226 54.796,43.754 52.773,43.754 C50.988,43.921 49.097,45.734 47.425,47.335 C46.941,47.805 46.465,48.261 45.999,48.667 C44.265,50.003 42.144,51.347 40.398,50.402 C38.445,49.347 38.62,46.503 38.828,43.21 C38.902,41.96 38.984,40.667 38.925,39.601 C38.781,37.007 38.417,36.57 38.312,36.499 C38.109,36.355 37.351,36.371 34.925,37.226 C33.995,43.738 31.831,50.277 28.152,57.937 C27.8232855,58.6470403 27.5055808,59.3621259 27.199,60.082 C25.577,63.835 23.898,67.714 20.855,67.984 C20.7446617,67.9946605 20.6338501,67.999667 20.523,67.999 L20.522,67.999 L20.522,68 Z M31.788,38.543 C27.944,40.359 24.002,42.949 20.624,45.898 C17.307,48.91 12.464,55.07 17.546,62.296 C19.335,64.999 20.326,65.128 20.592,65.096 C21.936,64.98 23.51,61.336 24.553,58.925 C24.889,58.148 25.217,57.385 25.549,56.683 C28.764,49.987 30.776,44.203 31.788,38.542 L31.788,38.543 Z" id="Shape"></path>
        </g>
    </g>
</svg>
